svg/u1f698.svg

<svg viewBox="0 0 128 128" xmlns="http://www.w3.org/2000/svg">
  <path d="M26.37,112.17c0,0.87-0.23,6.82-0.29,8.22s-1.11,3.5-2.39,3.56c-1.28,0.06-7.05-0.12-7.87-0.17 s-3.35-1.06-3.67-4.9c-0.34-4.07-0.5-8.61-0.47-10.32c0.03-1.75-0.12-4.2-0.12-4.2L26.37,112.17z" fill="#4E433C"/>
  <path d="M102.99,112.57c0,0,0.06,6.59,0.06,7.81c0,1.22,1.05,3.44,4.31,3.56s4.84,0.05,6.12,0 c1.63-0.06,2.97-1.98,3.26-5.71c0.3-3.9,0.35-7.99,0.41-9.5c0.06-1.52,0.18-3.93,0.18-3.93s-13.58,3.4-13.64,3.69 C103.63,108.78,102.99,112.57,102.99,112.57z" fill="#4E433C"/>
  <path d="M18.76,55.47l-4.42-0.08L1.16,55.97c-0.05,1.63,0.43,3.36,3.31,4.27s12.85,0.62,12.85,0.62 l-1.35,0.84c0,0-3.34,8.74-4.49,13.19c-1.67,6.46-0.71,22.51-0.71,22.51l1.37,9.21c0,0,2.1,5.54,7,6.53s28.16,1.65,44.22,2.15 c16.06,0.5,44.51-1.72,47.57-2.49c3.05-0.76,5.8-4.73,6.56-7.17c0.76-2.44,1.07-10.68,1.07-10.68s0.82-11.73-0.29-18.6 c-0.65-4.03-4.05-12.41-4.69-13.78c-0.64-1.37-1.57-3.87-1.57-3.87s10.85,0.14,12.61-0.92c2.03-1.23,2.18-2.42,2.21-3.65 c0.02-1.02-0.36-1.37-0.64-1.53c-0.68,0.14-13.65,0.95-13.65,0.95h-3.81L18.76,55.47z" fill="#D70617"/>
  <path d="M17.99,99.1l-7.71-2.64c0,0,0.28,9.3,2.62,11.22c2.34,1.92,5.69,3.34,10.28,3.76 s27.26,0.75,40.88,0.75s42.89-1.25,47.15-2.51c4.26-1.25,5.47-2.61,6.27-4.26c1.17-2.42,1.52-9.61,1.52-9.61s-4.19,3.67-5.36,4.17 c-1.17,0.5-53.09,2.34-53.34,2.34C60.05,102.33,17.99,99.1,17.99,99.1z" fill="#FF2A23"/>
  <path d="M15.48,62.95c0.27,1.7,0.77,4.59,5.6,5.77c4.83,1.18,19.56,7.07,43.71,6.6 c24.15-0.47,39.83-8.01,41.59-8.72c1.77-0.71,5.86-2.83,6.01-5.42c0.1-1.75-1.3-5.07-1.3-5.07s-3.53-12.61-5.42-17.91 s-4.36-11.9-6.01-14.73s-4.36-3.53-7.66-3.89c-3.3-0.35-13.9-0.7-27.92-0.59c-15.55,0.12-25.8,0.59-28.4,0.71 c-2.59,0.12-4.95,1.65-6.48,4.48c-1.53,2.83-4.06,8.5-7.07,17.67c-2.71,8.25-4.71,16.26-4.71,16.26S15.48,62.92,15.48,62.95z" fill="#FF2A23"/>
  <path d="M112.81,53.66c0.29,0.33,2.2,1.82,6.64,1.76c5.02-0.07,7.19-2.38,7.19-2.38s-0.85-2.59-4.48-4.27 c-3.94-1.83-7.51-1.65-8.98-0.75C111.99,48.75,112.81,53.66,112.81,53.66z" fill="#FF2A23"/>
  <path d="M15.55,55.72c0,0,1.36-4.29-1.25-5.61s-9.19-0.24-11.8,2.09c-1.41,1.25-1.35,3.78-1.35,3.78 s2.7,1.47,7.76,1.43S15.55,55.72,15.55,55.72z" fill="#FF2A23"/>
  <path d="M46.87,93.79c1.59,0.9,33.27,0.48,34.31,0.07c1.04-0.42,5.05-8.99,5.67-10.86 c0.33-0.98,0.21-2.97-2.28-3.87c-2.49-0.9-11.34-1.73-20.68-1.8s-18.4,0.69-21.17,1.73c-1.62,0.61-1.86,1.98-1.38,3.32 C43.17,87.41,45.28,92.89,46.87,93.79z" fill="#474C4F"/>
  <path d="M10.65,95.03c-0.82,0.2-0.49,7.06,3.98,8.45c5.47,1.7,38.72,1.72,49.22,1.6 c10.5-0.12,45.57,0.23,48.8-0.87c4.95-1.69,7.46-8.98,5.9-9.26c-1.97-0.35-3.28,2.91-12.78,3.02c-10.38,0.11-31.87,0.81-41.89,0.69 c-10.02-0.12-41.89,0-46.84-1.45S11.48,94.83,10.65,95.03z" fill="#FF6B5D"/>
  <path d="M91.4,75.96c0.09,1.04,1.15,2.27,2.77,2.15c1.63-0.13,11.76-0.62,13.45-1.12 c1.17-0.35,3.72-2.22,3.89-4.63c0.18-2.53-0.03-3.81-0.07-4.7c-0.06-1.23-0.5-2.2-3.41-2.12c-2.91,0.09-11.69,0.4-13.38,0.48 c-1.88,0.09-3.22,1.04-3.26,3.37C91.35,71.31,91.28,74.58,91.4,75.96z" fill="#FEECCB"/>
  <path d="M95.42,72.03c0.02,3.54,2.31,5.96,6.74,5.6c5.49-0.45,6.32-3.39,6.12-6.57 c-0.21-3.33-2.75-5.41-6.18-5.3C98.57,65.88,95.39,67.63,95.42,72.03z" fill="#FFFEFF"/>
  <path d="M36.75,77.67c0.81-0.81,0.5-5.48,0.37-8.22c-0.12-2.74-2.74-3.11-4.73-3.11s-12.95-0.12-14.76,0.06 c-1.18,0.12-0.7,5.84-0.37,7.16c0.31,1.25,2.18,4.23,5.54,4.42S35.78,78.63,36.75,77.67z" fill="#FEECCB"/>
  <path d="M21.06,72.15c0,3.13,1.88,6.15,6.55,6.06c5.01-0.1,6.16-3.85,6.21-6.06c0.05-2.21-1.32-5.97-6.6-5.87 C22.06,66.38,21.06,70.23,21.06,72.15z" fill="#FFFEFF"/>
  <path d="M37.39,23.3c-1.76,0.22-4.1,0.75-5.5,3.54c-1.4,2.8-3.75,8.7-5.13,12.59 c-2.05,5.78-4.57,14.08-4.94,15.76c-0.37,1.68,0,3.17,2.8,3.36s20.51,1.2,39.07,1.03c19.86-0.19,39.35-1.31,41.12-1.49 c1.77-0.19,2.61-1.96,2.24-4.01c-0.37-2.05-3.73-12.12-5.31-16.6c-1.59-4.48-3.75-9.37-4.56-10.81c-0.7-1.24-1.78-2.43-5.23-2.99 c-2.97-0.48-18.65-1.21-28.16-1.12C54.27,22.65,40.37,22.93,37.39,23.3z" fill="#547078"/>
  <path d="M35.9,51.93l-8.67-2.24c0,0,2-6.88,3.82-11.66c1.21-3.17,2.16-5.92,2.98-7.74 c0.5-1.1,1.49-2.61,4.29-2.8c2.8-0.19,8.49-0.56,26.57-0.65c18.09-0.09,24.07,0.59,25.64,0.84c1.77,0.28,3.82,0.37,5.22,3.73 c1.4,3.36,3.17,9.14,4.48,13.05c0.73,2.18,1.77,6.15,1.77,6.15L35.9,51.93z" fill="#AFE3FB"/>
  <path d="M38.51,48.11c0,0,0.37-5.22,0.37-7.65c0-2.24,2.05-4.2,3.82-4.38c1.77-0.19,7.27-0.09,8.58,0 c1.31,0.09,3.36,1.49,3.45,3.82s0.28,7.37,0.28,7.37h19.86c0,0,0-5.59,0.09-7.65s1.4-3.08,3.45-3.17c2.05-0.09,7.46-0.19,9.04-0.09 c1.59,0.09,3.08,1.4,3.26,3.73c0.19,2.33,0.19,8.39,0.19,8.39s2.67,0.08,5.19,0.38c2.65,0.32,5.65,0.78,5.65,0.78 s1.56,3.96-1.05,4.15c-2.33,0.17-23.59,0.37-37.67,0.56c-14.08,0.19-33.66-0.06-34.69-0.09c-1.4-0.05-1.77-1.4-1.68-2.33 c0.09-0.93,0.56-2.24,0.56-2.24s3.36-0.65,5.59-0.93C35.06,48.48,38.51,48.11,38.51,48.11z" fill="#96C8EB"/>
</svg>

<svg viewBox="0 0 128 128" xmlns="http://www.w3.org/2000/svg">
  <defs/>
  <path d="M26.37,112.17 C26.37,113.04 26.14,118.99 26.08,120.39 C26.02,121.79 24.97,123.89 23.69,123.95 C22.41,124.01 16.64,123.83 15.82,123.78 C15,123.73 12.47,122.72 12.15,118.88 C11.81,114.81 11.65,110.27 11.68,108.56 C11.71,106.81 11.56,104.36 11.56,104.36 L26.37,112.17 Z" fill="#4E433C"/>
  <path d="M102.99,112.57 C102.99,112.57 103.05,119.16 103.05,120.38 C103.05,121.6 104.1,123.82 107.36,123.94 C110.62,124.06 112.2,123.99 113.48,123.94 C115.11,123.88 116.45,121.96 116.74,118.23 C117.04,114.33 117.09,110.24 117.15,108.73 C117.21,107.21 117.33,104.8 117.33,104.8 C117.33,104.8 103.75,108.2 103.69,108.49 C103.63,108.78 102.99,112.57 102.99,112.57 Z" fill="#4E433C"/>
  <path d="M18.76,55.47 L14.34,55.39 L1.16,55.97 C1.11,57.6 1.59,59.33 4.47,60.24 C7.35,61.15 17.32,60.86 17.32,60.86 L15.97,61.7 C15.97,61.7 12.63,70.44 11.48,74.89 C9.81,81.35 10.77,97.4 10.77,97.4 L12.14,106.61 C12.14,106.61 14.24,112.15 19.14,113.14 C24.04,114.13 47.3,114.79 63.36,115.29 C79.42,115.79 107.87,113.57 110.93,112.8 C113.98,112.04 116.73,108.07 117.49,105.63 C118.25,103.19 118.56,94.95 118.56,94.95 C118.56,94.95 119.38,83.22 118.27,76.35 C117.62,72.32 114.22,63.94 113.58,62.57 C112.94,61.2 112.01,58.7 112.01,58.7 C112.01,58.7 122.86,58.84 124.62,57.78 C126.65,56.55 126.8,55.36 126.83,54.13 C126.85,53.11 126.47,52.76 126.19,52.6 C125.51,52.74 112.54,53.55 112.54,53.55 L108.73,53.55 L18.76,55.47 Z" fill="#D70617"/>
  <path d="M17.99,99.1 L10.28,96.46 C10.28,96.46 10.56,105.76 12.9,107.68 C15.24,109.6 18.59,111.02 23.18,111.44 C27.77,111.86 50.44,112.19 64.06,112.19 C77.68,112.19 106.95,110.94 111.21,109.68 C115.47,108.43 116.68,107.07 117.48,105.42 C118.65,103 119,95.81 119,95.81 C119,95.81 114.81,99.48 113.64,99.98 C112.47,100.48 60.55,102.32 60.3,102.32 C60.05,102.33 17.99,99.1 17.99,99.1 Z" fill="#FF2A23"/>
  <path d="M15.48,62.95 C15.75,64.65 16.25,67.54 21.08,68.72 C25.91,69.9 40.64,75.79 64.79,75.32 C88.94,74.85 104.62,67.31 106.38,66.6 C108.15,65.89 112.24,63.77 112.39,61.18 C112.49,59.43 111.09,56.11 111.09,56.11 C111.09,56.11 107.56,43.5 105.67,38.2 C103.78,32.9 101.31,26.3 99.66,23.47 C98.01,20.64 95.3,19.94 92,19.58 C88.7,19.23 78.1,18.88 64.08,18.99 C48.53,19.11 38.28,19.58 35.68,19.7 C33.09,19.82 30.73,21.35 29.2,24.18 C27.67,27.01 25.14,32.68 22.13,41.85 C19.42,50.1 17.42,58.11 17.42,58.11 C17.42,58.11 15.48,62.92 15.48,62.95 Z" fill="#FF2A23"/>
  <path d="M112.81,53.66 C113.1,53.99 115.01,55.48 119.45,55.42 C124.47,55.35 126.64,53.04 126.64,53.04 C126.64,53.04 125.79,50.45 122.16,48.77 C118.22,46.94 114.65,47.12 113.18,48.02 C111.99,48.75 112.81,53.66 112.81,53.66 Z" fill="#FF2A23"/>
  <path d="M15.55,55.72 C15.55,55.72 16.91,51.43 14.3,50.11 C11.69,48.79 5.11,49.87 2.5,52.2 C1.09,53.45 1.15,55.98 1.15,55.98 C1.15,55.98 3.85,57.45 8.91,57.41 C13.97,57.37 15.55,55.72 15.55,55.72 Z" fill="#FF2A23"/>
  <path d="M46.87,93.79 C48.46,94.69 80.14,94.27 81.18,93.86 C82.22,93.44 86.23,84.87 86.85,83 C87.18,82.02 87.06,80.03 84.57,79.13 C82.08,78.23 73.23,77.4 63.89,77.33 C54.55,77.26 45.49,78.02 42.72,79.06 C41.1,79.67 40.86,81.04 41.34,82.38 C43.17,87.41 45.28,92.89 46.87,93.79 Z" fill="#474C4F"/>
  <path d="M10.65,95.03 C9.83,95.23 10.16,102.09 14.63,103.48 C20.1,105.18 53.35,105.2 63.85,105.08 C74.35,104.96 109.42,105.31 112.65,104.21 C117.6,102.52 120.11,95.23 118.55,94.95 C116.58,94.6 115.27,97.86 105.77,97.97 C95.39,98.08 73.9,98.78 63.88,98.66 C53.86,98.54 21.99,98.66 17.04,97.21 C12.09,95.76 11.48,94.83 10.65,95.03 Z" fill="#FF6B5D"/>
  <path d="M91.4,75.96 C91.49,77 92.55,78.23 94.17,78.11 C95.8,77.98 105.93,77.49 107.62,76.99 C108.79,76.64 111.34,74.77 111.51,72.36 C111.69,69.83 111.48,68.55 111.44,67.66 C111.38,66.43 110.94,65.46 108.03,65.54 C105.12,65.63 96.34,65.94 94.65,66.02 C92.77,66.11 91.43,67.06 91.39,69.39 C91.35,71.31 91.28,74.58 91.4,75.96 Z" fill="#FEECCB"/>
  <path d="M95.42,72.03 C95.44,75.57 97.73,77.99 102.16,77.63 C107.65,77.18 108.48,74.24 108.28,71.06 C108.07,67.73 105.53,65.65 102.1,65.76 C98.57,65.88 95.39,67.63 95.42,72.03 Z" fill="#FFFEFF"/>
  <path d="M36.75,77.67 C37.56,76.86 37.25,72.19 37.12,69.45 C37,66.71 34.38,66.34 32.39,66.34 C30.4,66.34 19.44,66.22 17.63,66.4 C16.45,66.52 16.93,72.24 17.26,73.56 C17.57,74.81 19.44,77.79 22.8,77.98 C26.16,78.17 35.78,78.63 36.75,77.67 Z" fill="#FEECCB"/>
  <path d="M21.06,72.15 C21.06,75.28 22.94,78.3 27.61,78.21 C32.62,78.11 33.77,74.36 33.82,72.15 C33.87,69.94 32.5,66.18 27.22,66.28 C22.06,66.38 21.06,70.23 21.06,72.15 Z" fill="#FFFEFF"/>
  <path d="M37.39,23.3 C35.63,23.52 33.29,24.05 31.89,26.84 C30.49,29.64 28.14,35.54 26.76,39.43 C24.71,45.21 22.19,53.51 21.82,55.19 C21.45,56.87 21.82,58.36 24.62,58.55 C27.42,58.74 45.13,59.75 63.69,59.58 C83.55,59.39 103.04,58.27 104.81,58.09 C106.58,57.9 107.42,56.13 107.05,54.08 C106.68,52.03 103.32,41.96 101.74,37.48 C100.15,33 97.99,28.11 97.18,26.67 C96.48,25.43 95.4,24.24 91.95,23.68 C88.98,23.2 73.3,22.47 63.79,22.56 C54.27,22.65 40.37,22.93 37.39,23.3 Z" fill="#547078"/>
  <path d="M35.9,51.93 L27.23,49.69 C27.23,49.69 29.23,42.81 31.05,38.03 C32.26,34.86 33.21,32.11 34.03,30.29 C34.53,29.19 35.52,27.68 38.32,27.49 C41.12,27.3 46.81,26.93 64.89,26.84 C82.98,26.75 88.96,27.43 90.53,27.68 C92.3,27.96 94.35,28.05 95.75,31.41 C97.15,34.77 98.92,40.55 100.23,44.46 C100.96,46.64 102,50.61 102,50.61 L35.9,51.93 Z" fill="#AFE3FB"/>
  <path d="M38.51,48.11 C38.51,48.11 38.88,42.89 38.88,40.46 C38.88,38.22 40.93,36.26 42.7,36.08 C44.47,35.89 49.97,35.99 51.28,36.08 C52.59,36.17 54.64,37.57 54.73,39.9 C54.82,42.23 55.01,47.27 55.01,47.27 L74.87,47.27 C74.87,47.27 74.87,41.68 74.96,39.62 C75.05,37.56 76.36,36.54 78.41,36.45 C80.46,36.36 85.87,36.26 87.45,36.36 C89.04,36.45 90.53,37.76 90.71,40.09 C90.9,42.42 90.9,48.48 90.9,48.48 C90.9,48.48 93.57,48.56 96.09,48.86 C98.74,49.18 101.74,49.64 101.74,49.64 C101.74,49.64 103.3,53.6 100.69,53.79 C98.36,53.96 77.1,54.16 63.02,54.35 C48.94,54.54 29.36,54.29 28.33,54.26 C26.93,54.21 26.56,52.86 26.65,51.93 C26.74,51 27.21,49.69 27.21,49.69 C27.21,49.69 30.57,49.04 32.8,48.76 C35.06,48.48 38.51,48.11 38.51,48.11 Z" fill="#96C8EB"/>
</svg>
